X: 79
M: 4/4
L: 1/8
K: Am
^/c2B2 c2d2 | e2^f2 e3d | ^c2B2 c2d2 | e2A2 A2AB |
^/c2B2 c2d2 | e2^f2 e3d | ^c2A2 B2zd | ^/c2A2 A2 |]


